icons/svg/vk-circle.svg

﻿<?xml version="1.0" encoding="utf-8"?>
<!DOCTYPE svg PUBLIC "-//W3C//DTD SVG 1.1//EN" "http://www.w3.org/Graphics/SVG/1.1/DTD/svg11.dtd">
<svg xmlns="http://www.w3.org/2000/svg" xmlns:xlink="http://www.w3.org/1999/xlink" version="1.1" baseProfile="full" width="24" height="24" viewBox="0 0 24.00 24.00" enable-background="new 0 0 24.00 24.00" xml:space="preserve">
	<path fill="#000000" fill-opacity="1" stroke-width="0.2" stroke-linejoin="round" d="M 12,2C 17.5228,2 22,6.47715 22,12C 22,17.5229 17.5228,22 12,22C 6.47715,22 2,17.5229 2,12C 2,6.47715 6.47715,2 12,2 Z M 17.2365,14.0269C 16.0621,12.9373 16.2199,13.1138 17.6369,11.2225C 18.4997,10.0748 18.8468,9.37366 18.7393,9.0739C 18.6348,8.78892 17.9997,8.86189 17.9997,8.86189L 15.8885,8.87668C 15.8885,8.87668 15.7308,8.854 15.6154,8.92303C 15.503,8.99304 15.43,9.15081 15.43,9.15081C 15.43,9.15081 15.0948,10.0402 14.652,10.7956C 13.7123,12.394 13.3346,12.4749 13.1808,12.3782C 12.8258,12.1475 12.9146,11.4503 12.9146,10.9534C 12.9146,9.40818 13.1502,8.76131 12.456,8.59565C 12.2292,8.54241 12.0596,8.50296 11.4739,8.5C 10.7196,8.49212 10.0835,8.5 9.72165,8.67651C 9.47908,8.79583 9.2937,9.05812 9.41006,9.0739C 9.54811,9.08869 9.86463,9.1587 10.0303,9.3855C 10.2492,9.67836 10.2413,10.341 10.2413,10.341C 10.2413,10.341 10.3646,12.1593 9.94845,12.3861C 9.66348,12.5399 9.27496,12.2244 8.43878,10.7759C 8.00786,10.0363 7.68443,9.21589 7.68443,9.21589L 7.51088,8.97726L 7.18745,8.84612L 5.18079,8.854C 5.18079,8.854 4.88004,8.85006 4.76861,8.98121C 4.67198,9.10052 4.76073,9.32042 4.76073,9.32042C 4.76073,9.32042 6.33253,12.9561 8.10746,14.8049C 9.73743,16.5039 11.5903,16.3107 11.5903,16.3107L 12.4294,16.3107C 12.4294,16.3107 12.6799,16.3649 12.811,16.2269C 12.9303,16.0997 12.9264,15.9379 12.9264,15.9379C 12.9264,15.9379 12.9106,14.8128 13.4313,14.6472C 13.947,14.4815 14.6096,15.7338 15.3107,16.215C 15.8383,16.5769 16.2425,16.5 16.2425,16.5L 18.119,16.4734C 18.119,16.4734 19.0972,16.4113 18.6308,15.6411C 18.5963,15.5751 18.3616,15.0712 17.2365,14.0269 Z "/>
</svg>

<svg xmlns="http://www.w3.org/2000/svg" version="1.1" baseProfile="full" width="24" height="24" viewBox="0 0 24.00 24.00" xml:space="preserve"><path fill="#000" fill-opacity="1" stroke-width=".2" stroke-linejoin="round" d="M12 2c5.523 0 10 4.477 10 10s-4.477 10-10 10S2 17.523 2 12 6.477 2 12 2zm5.236 12.027c-1.174-1.09-1.016-.913.4-2.804.864-1.148 1.21-1.85 1.103-2.15-.105-.284-.74-.21-.74-.21l-2.11.014c-.002 0-.16-.023-.275.046-.112.07-.185.228-.185.228s-.335.89-.778 1.646c-.94 1.598-1.317 1.68-1.47 1.582-.356-.23-.267-.928-.267-1.425 0-1.545.235-2.192-.46-2.357-.226-.054-.395-.093-.98-.096-.755-.008-1.39 0-1.753.177-.243.12-.428.38-.312.397.138.015.455.085.62.312.22.292.21.955.21.955s.125 1.82-.292 2.046c-.285.154-.673-.162-1.51-1.61-.43-.74-.754-1.56-.754-1.56l-.173-.24-.323-.13-2.006.008s-.3-.004-.41.127c-.098.12-.01.34-.01.34s1.573 3.636 3.347 5.485c1.63 1.7 3.483 1.506 3.483 1.506h.84s.25.055.38-.083c.12-.127.116-.29.116-.29s-.015-1.124.505-1.29c.517-.165 1.18 1.087 1.88 1.568.528.362.932.285.932.285l1.877-.027s.977-.062.51-.832c-.034-.065-.268-.57-1.393-1.613z"/></svg>
